icons/arrow-tray-top-left.svg

<svg xmlns="http://www.w3.org/2000/svg" width="24" height="24" viewBox="0 0 24 24">
  <path d="M21,14 C21.5522847,14 22,14.4477153 22,15 L22,15 L22,19 L21.9949073,19.1762728 C21.9036609,20.75108 20.5976809,22 19,22 L19,22 L5,22 L4.82372721,21.9949073 C3.24891996,21.9036609 2,20.5976809 2,19 L2,19 L2,15 L2.00672773,14.8833789 C2.06449284,14.3860402 2.48716416,14 3,14 C3.55228475,14 4,14.4477153 4,15 L4,15 L4,19 L4.00672773,19.1166211 C4.06449284,19.6139598 4.48716416,20 5,20 L5,20 L19,20 L19.1166211,19.9932723 C19.6139598,19.9355072 20,19.5128358 20,19 L20,19 L20,15 L20.0067277,14.8833789 C20.0644928,14.3860402 20.4871642,14 21,14 Z M9,2 C9.55228475,2 10,2.44771525 10,3 C10,3.51283584 9.61395981,3.93550716 9.11662113,3.99327227 L9,4 L5.415,4 L12.7071068,11.2928932 C13.0976311,11.6834175 13.0976311,12.3165825 12.7071068,12.7071068 C12.3466228,13.0675907 11.7793918,13.0953203 11.3871006,12.7902954 L11.2928932,12.7071068 L4,5.415 L4,9 C4,9.55228475 3.55228475,10 3,10 C2.48716416,10 2.06449284,9.61395981 2.00672773,9.11662113 L2,9 L2.00016755,2.98163795 L2.001,2.946 L2.001,2.981 L2.003,2.918 L2.01101934,2.85103878 L2.01101934,2.85103878 C2.01362808,2.83405099 2.01670217,2.81662474 2.02024007,2.79927424 C2.0246398,2.77725392 2.02983363,2.75556352 2.03572097,2.73416039 C2.04009773,2.71853672 2.04472872,2.70314866 2.04973809,2.68785748 C2.05612249,2.66820232 2.06331574,2.6484208 2.07110396,2.62894148 L2.09367336,2.57677845 L2.09367336,2.57677845 C2.10337664,2.5561086 2.11379392,2.53570605 2.12487577,2.51572305 C2.13149883,2.50360556 2.13860692,2.49138689 2.14599545,2.47929125 C2.1617187,2.45372505 2.17849009,2.42886931 2.19631351,2.4048407 L2.21292769,2.38297765 L2.21292769,2.38297765 L2.28900038,2.29679135 L2.28900038,2.29679135 L2.349,2.242 L2.29289322,2.29289322 L2.34743396,2.24220802 L2.34743396,2.24220802 L2.362,2.23 L2.37455101,2.21968877 L2.37455101,2.21968877 L2.38519363,2.21126487 L2.40469339,2.19633458 L2.40469339,2.19633458 C2.42886931,2.17849009 2.45372505,2.1617187 2.47933981,2.14606743 L2.5159379,2.12467117 L2.5159379,2.12467117 C2.53570605,2.11379392 2.5561086,2.10337664 2.57690085,2.09365378 L2.62866398,2.07122549 L2.62866398,2.07122549 C2.6484208,2.06331574 2.66820232,2.05612249 2.68826359,2.04954668 L2.70815633,2.0433274 L2.70815633,2.0433274 L2.72912705,2.03711974 C2.75280168,2.03047332 2.77683175,2.02467654 2.80118228,2.01976438 L2.82356849,2.01559786 L2.82356849,2.01559786 L2.84601538,2.01178265 C2.85839634,2.00986911 2.8708523,2.00818267 2.88337887,2.00672773 L2.91578241,2.00353089 C2.92417133,2.00282612 2.93256745,2.00222686 2.94096861,2.0017331 L2.98,2.001 L3,2 L9,2 Z"/>
</svg>

<svg xmlns="http://www.w3.org/2000/svg" viewBox="0 0 24 24">
  <path d="M21 14a1 1 0 0 1 1 1v4.18A3 3 0 0 1 19 22H4.82A3 3 0 0 1 2 19v-4.12A1 1 0 0 1 4 15v4.12A1 1 0 0 0 5 20h14.12a1 1 0 0 0 .88-1v-4.12a1 1 0 0 1 1-.88zM9 2a1 1 0 0 1 .12 2h-3.7l7.29 7.3a1 1 0 0 1-1.32 1.49l-.1-.08L4 5.4V9a1 1 0 0 1-2 .12V2.95v.03-.06l.01-.07a1.08 1.08 0 0 1 .06-.22l.02-.05a1.02 1.02 0 0 1 .1-.18l.02-.02.08-.08.06-.06-.06.05.06-.05.01-.01.01-.01h.02l.01-.02.08-.05.04-.03.06-.03.05-.02.06-.02h.02l.02-.01a1 1 0 0 1 .07-.02h.05A1 1 0 0 1 2.88 2H9z"/>
</svg>
